Dominus_Dark_Funeral/scalable/mimes/text-x-sql.svg

<svg xmlns="http://www.w3.org/2000/svg" xmlns:xlink="http://www.w3.org/1999/xlink" width="48" height="48" viewBox="0 0 12.7 12.7"><defs><linearGradient id="b"><stop offset="0"/><stop offset="1" stop-opacity="0"/></linearGradient><linearGradient gradientTransform="scale(.26458)" xlink:href="#a" id="c" x1="13" y1=".03" x2="38.41" y2="39.04" gradientUnits="userSpaceOnUse"/><linearGradient id="a"><stop offset="0" stop-color="#676c53"/><stop offset=".2" stop-color="#8a916f"/><stop offset=".33" stop-color="#676c53"/><stop offset=".52" stop-color="#8a916f"/><stop offset=".78" stop-color="#848872"/><stop offset="1" stop-color="#676c53"/></linearGradient><linearGradient xlink:href="#b" id="d" x1="3.85" y1="4.47" x2="9.73" y2="7.17" gradientUnits="userSpaceOnUse"/></defs><path d="M10.82 4.6l-2.07 8.1h-4.8L1.88 4.6 3.44 0h5.82z" fill="url(#c)"/><path d="M4.84 11.6l-.89 1.1h4.8l-.89-1.1z" fill="none"/><path d="M3.44 0l.82 1.1h4.18L9.26 0z" fill="#22241c" fill-opacity=".35"/><path d="M4.84 11.6l-.89 1.1-2.07-8.1 1.18.05z" fill="#22241c" fill-opacity=".47"/><path d="M1.88 4.6L3.44 0l.82 1.1-1.2 3.55zm8.94 0L9.26 0l-.82 1.1 1.2 3.55z" fill="#22241c" fill-opacity=".71"/><path d="M7.86 11.6l.89 1.1 2.07-8.1-1.17.05z" fill="#22241c" fill-opacity=".47"/><path d="M4.84 11.6l-.89 1.1h4.8l-.89-1.1z" fill="#22241c" fill-opacity=".1"/><path d="M4.53 7.3l-.09-1.4V4.49l.04-.57 3.8-.52 1.36 1.25-1.555 6.195z" opacity=".6" fill="url(#d)"/><path d="M6.35 2.78c-1.05 0-1.9.35-1.9.78v.65c0 .43.85.78 1.9.78 1.05 0 1.91-.35 1.91-.78v-.65c0-.43-.86-.78-1.91-.78zm-1.9 1.7v1.13c0 .44.85.79 1.9.79 1.05 0 1.91-.35 1.91-.79V4.5c-.07.4-.9.73-1.91.73-1 0-1.84-.33-1.9-.73zm0 1.42v1.12c0 .43.85.79 1.9.79 1.05 0 1.91-.36 1.91-.79V5.9c-.07.4-.9.72-1.91.72-1 0-1.84-.32-1.9-.72z" fill="#dbe3db"/></svg>

<?xml version="1.0" encoding="UTF-8" standalone="no"?>
<svg
   xmlns:dc="http://purl.org/dc/elements/1.1/"
   xmlns:cc="http://creativecommons.org/ns#"
   xmlns:rdf="http://www.w3.org/1999/02/22-rdf-syntax-ns#"
   xmlns:svg="http://www.w3.org/2000/svg"
   xmlns="http://www.w3.org/2000/svg"
   xmlns:xlink="http://www.w3.org/1999/xlink"
   xmlns:sodipodi="http://sodipodi.sourceforge.net/DTD/sodipodi-0.dtd"
   xmlns:inkscape="http://www.inkscape.org/namespaces/inkscape"
   width="48"
   height="48"
   viewBox="0 0 12.7 12.7"
   version="1.1"
   id="svg42"
   sodipodi:docname="text-x-sql.svg"
   inkscape:version="0.92.4 (5da689c313, 2019-01-14)">
  <metadata
     id="metadata46">
    <rdf:RDF>
      <cc:Work
         rdf:about="">
        <dc:format>image/svg+xml</dc:format>
        <dc:type
           rdf:resource="http://purl.org/dc/dcmitype/StillImage" />
        <dc:title></dc:title>
      </cc:Work>
    </rdf:RDF>
  </metadata>
  <sodipodi:namedview
     pagecolor="#ffffff"
     bordercolor="#666666"
     borderopacity="1"
     objecttolerance="10"
     gridtolerance="10"
     guidetolerance="10"
     inkscape:pageopacity="0"
     inkscape:pageshadow="2"
     inkscape:window-width="1112"
     inkscape:window-height="480"
     id="namedview44"
     showgrid="false"
     inkscape:zoom="4.9166667"
     inkscape:cx="2.1355932"
     inkscape:cy="24"
     inkscape:window-x="0"
     inkscape:window-y="25"
     inkscape:window-maximized="0"
     inkscape:current-layer="svg42" />
  <defs
     id="defs22">
    <linearGradient
       id="b">
      <stop
         offset="0"
         id="stop2" />
      <stop
         offset="1"
         stop-opacity="0"
         id="stop4" />
    </linearGradient>
    <linearGradient
       gradientTransform="scale(0.26458)"
       xlink:href="#a"
       id="c"
       x1="13"
       y1=".03"
       x2="38.41"
       y2="39.04"
       gradientUnits="userSpaceOnUse" />
    <linearGradient
       id="a">
      <stop
         offset="0"
         stop-color="#676c53"
         id="stop8" />
      <stop
         offset=".2"
         stop-color="#8a916f"
         id="stop10" />
      <stop
         offset=".33"
         stop-color="#676c53"
         id="stop12" />
      <stop
         offset=".52"
         stop-color="#8a916f"
         id="stop14" />
      <stop
         offset=".78"
         stop-color="#848872"
         id="stop16" />
      <stop
         offset="1"
         stop-color="#676c53"
         id="stop18" />
    </linearGradient>
    <linearGradient
       xlink:href="#b"
       id="d"
       x1="3.85"
       y1="4.47"
       x2="9.73"
       y2="7.17"
       gradientUnits="userSpaceOnUse" />
  </defs>
  <path
     d="M 10.82,4.6 8.75,12.7 H 3.95 L 1.88,4.6 3.44,0 h 5.82 z"
     id="path24"
     style="fill:url(#c)"
     inkscape:connector-curvature="0" />
  <path
     d="m 4.84,11.6 -0.89,1.1 h 4.8 L 7.86,11.6 Z"
     id="path26"
     inkscape:connector-curvature="0"
     style="fill:none" />
  <path
     d="M 3.44,0 4.26,1.1 H 8.44 L 9.26,0 Z"
     id="path28"
     inkscape:connector-curvature="0"
     style="fill:#22241c;fill-opacity:0.35" />
  <path
     d="M 4.84,11.6 3.95,12.7 1.88,4.6 3.06,4.65 Z"
     id="path30"
     inkscape:connector-curvature="0"
     style="fill:#22241c;fill-opacity:0.47000002" />
  <path
     d="M 1.88,4.6 3.44,0 4.26,1.1 3.06,4.65 Z m 8.94,0 L 9.26,0 8.44,1.1 9.64,4.65 Z"
     id="path32"
     inkscape:connector-curvature="0"
     style="fill:#22241c;fill-opacity:0.70999995" />
  <path
     d="M 7.86,11.6 8.75,12.7 10.82,4.6 9.65,4.65 Z"
     id="path34"
     inkscape:connector-curvature="0"
     style="fill:#22241c;fill-opacity:0.47000002" />
  <path
     d="m 4.84,11.6 -0.89,1.1 h 4.8 L 7.86,11.6 Z"
     id="path36"
     inkscape:connector-curvature="0"
     style="fill:#22241c;fill-opacity:0.1" />
  <path
     d="M 4.53,7.3 4.44,5.9 V 4.49 L 4.48,3.92 8.28,3.4 9.64,4.65 8.085,10.845 Z"
     id="path38"
     style="opacity:0.6;fill:url(#d)"
     inkscape:connector-curvature="0" />
  <path
     d="m 6.35,2.78 c -1.05,0 -1.9,0.35 -1.9,0.78 v 0.65 c 0,0.43 0.85,0.78 1.9,0.78 1.05,0 1.91,-0.35 1.91,-0.78 V 3.56 C 8.26,3.13 7.4,2.78 6.35,2.78 Z m -1.9,1.7 V 5.61 C 4.45,6.05 5.3,6.4 6.35,6.4 7.4,6.4 8.26,6.05 8.26,5.61 V 4.5 C 8.19,4.9 7.36,5.23 6.35,5.23 5.35,5.23 4.51,4.9 4.45,4.5 Z m 0,1.42 v 1.12 c 0,0.43 0.85,0.79 1.9,0.79 1.05,0 1.91,-0.36 1.91,-0.79 V 5.9 C 8.19,6.3 7.36,6.62 6.35,6.62 5.35,6.62 4.51,6.3 4.45,5.9 Z"
     id="path40"
     inkscape:connector-curvature="0"
     style="fill:#dbe3db" />
</svg>
